_src/assets/icons/original/instagram.svg

<svg xmlns="http://www.w3.org/2000/svg" preserveAspectRatio="xMidYMid" width="64" height="64" viewBox="0 0 64 64"><path d="M56 64h-48c-4.418 0-8-3.582-8-8v-48c0-4.418 3.582-8 8-8h48c4.418 0 8 3.582 8 8v48c0 4.418-3.582 8-8 8zm-24-44.4c-4.989 0-9.278 2.953-11.246 7.2h-.011l-.055.137c-.117.262-.221.532-.321.803l-.143.389c-.091.278-.166.563-.238.849l-.103.401c-.065.302-.11.61-.153.92l-.057.374c-.046.436-.073.878-.073 1.327 0 6.848 5.552 12.4 12.4 12.4 6.848 0 12.4-5.552 12.4-12.4 0-.449-.027-.891-.073-1.327l-.057-.374c-.043-.31-.088-.618-.153-.92l-.103-.401c-.072-.286-.147-.571-.238-.849l-.143-.389c-.099-.271-.204-.541-.321-.803l-.055-.137h-.011c-1.968-4.247-6.257-7.2-11.246-7.2zm24.8-9.2c0-1.767-1.433-3.2-3.2-3.2h-6.4c-1.767 0-3.2 1.433-3.2 3.2v6.4c0 1.767 1.433 3.2 3.2 3.2h6.4c1.767 0 3.2-1.433 3.2-3.2v-6.4zm0 16.4h-5.899c.455 1.656.699 3.399.699 5.2 0 10.825-8.775 19.6-19.6 19.6-10.825 0-19.6-8.775-19.6-19.6 0-1.801.244-3.544.699-5.2h-5.899v26.8c0 1.767 1.433 3.2 3.2 3.2h43.2c1.767 0 3.2-1.433 3.2-3.2v-26.8z" class="cls-2" fill-rule="evenodd"/></svg>

<svg xmlns="http://www.w3.org/2000/svg" xmlns:xlink="http://www.w3.org/1999/xlink" preserveAspectRatio="xMidYMid" width="64" height="64" viewBox="0 0 64 64">

  <path d="M56.000,64.000 C56.000,64.000 8.000,64.000 8.000,64.000 C3.582,64.000 -0.000,60.418 -0.000,56.000 C-0.000,56.000 -0.000,8.000 -0.000,8.000 C-0.000,3.582 3.582,-0.000 8.000,-0.000 C8.000,-0.000 56.000,-0.000 56.000,-0.000 C60.418,-0.000 64.000,3.582 64.000,8.000 C64.000,8.000 64.000,56.000 64.000,56.000 C64.000,60.418 60.418,64.000 56.000,64.000 ZM32.000,19.600 C27.011,19.600 22.722,22.553 20.754,26.800 C20.754,26.800 20.743,26.800 20.743,26.800 C20.723,26.844 20.709,26.892 20.688,26.937 C20.571,27.199 20.467,27.469 20.367,27.740 C20.319,27.870 20.268,27.998 20.224,28.129 C20.133,28.407 20.058,28.692 19.986,28.978 C19.953,29.112 19.913,29.243 19.883,29.379 C19.818,29.681 19.773,29.989 19.730,30.299 C19.713,30.424 19.687,30.546 19.673,30.673 C19.627,31.109 19.600,31.551 19.600,32.000 C19.600,38.848 25.152,44.400 32.000,44.400 C38.848,44.400 44.400,38.848 44.400,32.000 C44.400,31.551 44.373,31.109 44.327,30.673 C44.313,30.546 44.287,30.424 44.270,30.299 C44.227,29.989 44.182,29.681 44.117,29.379 C44.087,29.243 44.047,29.112 44.014,28.978 C43.942,28.692 43.867,28.407 43.776,28.129 C43.732,27.998 43.681,27.870 43.633,27.740 C43.534,27.469 43.429,27.199 43.312,26.937 C43.291,26.892 43.277,26.844 43.257,26.800 C43.257,26.800 43.246,26.800 43.246,26.800 C41.278,22.553 36.989,19.600 32.000,19.600 ZM56.800,10.400 C56.800,8.633 55.367,7.200 53.600,7.200 C53.600,7.200 47.200,7.200 47.200,7.200 C45.433,7.200 44.000,8.633 44.000,10.400 C44.000,10.400 44.000,16.800 44.000,16.800 C44.000,18.567 45.433,20.000 47.200,20.000 C47.200,20.000 53.600,20.000 53.600,20.000 C55.367,20.000 56.800,18.567 56.800,16.800 C56.800,16.800 56.800,10.400 56.800,10.400 ZM56.800,26.800 C56.800,26.800 50.901,26.800 50.901,26.800 C51.356,28.456 51.600,30.199 51.600,32.000 C51.600,42.825 42.825,51.600 32.000,51.600 C21.175,51.600 12.400,42.825 12.400,32.000 C12.400,30.199 12.644,28.456 13.099,26.800 C13.099,26.800 7.200,26.800 7.200,26.800 C7.200,26.800 7.200,53.600 7.200,53.600 C7.200,55.367 8.633,56.800 10.400,56.800 C10.400,56.800 53.600,56.800 53.600,56.800 C55.367,56.800 56.800,55.367 56.800,53.600 C56.800,53.600 56.800,26.800 56.800,26.800 Z" id="path-1" class="cls-2" fill-rule="evenodd"/>
</svg>
